src/components/Icon/assets/person-circle.svg

<svg width="24" height="24" viewBox="0 0 24 24" fill="none" xmlns="http://www.w3.org/2000/svg">
<path fill-rule="evenodd" clip-rule="evenodd" d="M12.0005 12.296C14.9175 12.296 17.4735 14.08 18.4665 16.691C19.4265 15.371 20.0005 13.753 20.0005 12C20.0005 7.589 16.4115 4 12.0005 4C7.58949 4 4.00049 7.589 4.00049 12C4.00049 13.753 4.57349 15.371 5.53349 16.691C6.52749 14.079 9.08349 12.296 12.0005 12.296ZM7.23849 17.833L7.10849 18.316C8.46249 19.367 10.1575 20 12.0005 20C13.8425 20 15.5375 19.368 16.8915 18.316L16.7615 17.833C16.2025 15.751 14.2445 14.296 12.0005 14.296C9.75549 14.296 7.79749 15.751 7.23849 17.833ZM2.00049 12C2.00049 6.486 6.48649 2 12.0005 2C17.5145 2 22.0005 6.486 22.0005 12C22.0005 17.514 17.5145 22 12.0005 22C6.48649 22 2.00049 17.514 2.00049 12ZM11.0002 9.00009C11.0002 9.55109 11.4492 10.0001 12.0002 10.0001C12.5512 10.0001 13.0002 9.55109 13.0002 9.00009C13.0002 8.44909 12.5512 8.00009 12.0002 8.00009C11.4492 8.00009 11.0002 8.44909 11.0002 9.00009ZM9.00018 9.00009C9.00018 7.34609 10.3462 6.00009 12.0002 6.00009C13.6542 6.00009 15.0002 7.34609 15.0002 9.00009C15.0002 10.6541 13.6542 12.0001 12.0002 12.0001C10.3462 12.0001 9.00018 10.6541 9.00018 9.00009Z" fill="#65676A"/>
</svg>

<svg xmlns="http://www.w3.org/2000/svg" width="24" height="24" viewBox="0 0 24 24">
    <path fill="#65676A" fill-rule="evenodd" d="M12 2c5.515 0 10 4.486 10 10s-4.485 10-10 10C6.488 22 2 17.514 2 12S6.488 2 12 2zm0 12.296c-2.245 0-4.202 1.455-4.761 3.537l-.13.483C8.463 19.367 10.158 20 12 20c1.841 0 3.537-.632 4.89-1.684l-.13-.483c-.558-2.082-2.516-3.537-4.76-3.537zM12 4c-4.41 0-8 3.589-8 8 0 1.753.574 3.371 1.534 4.691.994-2.612 3.55-4.395 6.467-4.395s5.473 1.784 6.466 4.395C19.427 15.371 20 13.753 20 12c0-4.411-3.59-8-8-8zm0 2c1.654 0 3 1.346 3 3s-1.346 3-3 3-3-1.346-3-3 1.346-3 3-3zm0 2c-.55 0-1 .45-1 1 0 .551.45 1 1 1 .551 0 1-.449 1-1 0-.55-.449-1-1-1z"/>
</svg>
